icons/paintbrush-16.svg

<svg width="16" height="16" viewBox="0 0 16 16" fill="none" xmlns="http://www.w3.org/2000/svg">
<path fill-rule="evenodd" clip-rule="evenodd" d="M11.134 1.53534C9.72187 2.5618 8.16038 4.05739 6.88909 5.31243C5.8002 6.3874 5.04071 7.40072 4.57463 8.29403C3.43371 8.11807 2.22719 8.46951 1.34835 9.34835C0.917309 9.77939 0.657507 10.4135 0.487339 11.0048C0.31055 11.6191 0.200126 12.2995 0.129844 12.9191C0.0591564 13.5424 0.026886 14.1245 0.0121651 14.5495C0.00478363 14.7626 0.00176811 14.9375 0.000604631 15.0601C2.28896e-05 15.1214 -9.72733e-05 15.1697 -6.48484e-05 15.2032L5.62682e-05 15.2422L0.000128747 15.2529L0.00015545 15.2561L0.000164987 15.257C0.000165941 15.2572 0.000171663 15.2576 0.750132 15.25L0.74272 15.9999L0.744062 15.9999L0.747187 16L0.757942 16L0.796896 16.0002C0.830393 16.0002 0.87869 16.0001 0.940008 15.9995C1.06258 15.9983 1.23754 15.9953 1.45061 15.9879C1.87561 15.9732 2.45769 15.9409 3.08092 15.8702C3.70058 15.7999 4.38094 15.6895 4.99525 15.5127C5.58655 15.3425 6.22062 15.0827 6.65165 14.6517C7.52812 13.7752 7.88003 12.5728 7.70738 11.4346C8.61543 10.974 9.649 10.2194 10.747 9.13539C12.0258 7.87293 13.5112 6.30964 14.5219 4.88607C15.023 4.18026 15.4449 3.4577 15.6468 2.79008C15.8461 2.13108 15.8823 1.32142 15.2792 0.719512C14.6727 0.113332 13.8587 0.170535 13.2102 0.380037C12.55 0.593324 11.8343 1.02629 11.134 1.53534ZM7.18308 10.0159C7.03496 9.77872 6.85782 9.55452 6.65165 9.34835C6.44828 9.14498 6.22736 8.96985 5.99377 8.82296C6.25824 8.35106 6.6377 7.80988 7.15514 7.2158L8.81345 8.87411C8.21051 9.38336 7.66149 9.75652 7.18308 10.0159ZM0.74272 15.9999C0.742584 15.9999 0.742466 15.9999 0.750132 15.25L0.000171663 15.2576C0.00435257 15.6659 0.334509 15.9958 0.74272 15.9999ZM12.0159 2.74866C10.7919 3.63844 9.41136 4.93778 8.19367 6.13301L9.91179 7.85113C11.1211 6.64609 12.4214 5.25354 13.2988 4.01772C13.7683 3.35641 14.0794 2.79086 14.2111 2.35578C14.3452 1.91219 14.2432 1.80475 14.2196 1.78119L14.2189 1.78049L14.2182 1.77979C14.2045 1.76583 14.1072 1.66659 13.6714 1.80739C13.2389 1.94712 12.6762 2.26875 12.0159 2.74866ZM1.62029 13.0882C1.56143 13.6071 1.53111 14.0997 1.51564 14.4844C1.90037 14.469 2.39296 14.4386 2.91185 14.3798C3.48854 14.3143 4.07776 14.2158 4.58038 14.0712C5.10602 13.9199 5.43624 13.7457 5.59099 13.591C6.46967 12.7123 6.46967 11.2877 5.59099 10.409C4.71231 9.53033 3.28769 9.53033 2.40901 10.409C2.25426 10.5638 2.0801 10.894 1.92883 11.4196C1.78419 11.9223 1.6857 12.5115 1.62029 13.0882Z" fill="black"/>
</svg>

<svg xmlns="http://www.w3.org/2000/svg" width="16" height="16" viewBox="0 0 16 16"><path fill-rule="evenodd" d="M11.134 1.535C9.722 2.562 8.16 4.057 6.889 5.312 5.8 6.387 5.041 7.401 4.575 8.294a3.745 3.745 0 00-3.227 1.054c-.43.431-.69 1.066-.86 1.657a11.982 11.982 0 00-.358 1.914A21.263 21.263 0 000 15.203v.054l.75-.007-.007.75h.054a14.404 14.404 0 00.654-.012 21.243 21.243 0 001.63-.118c.62-.07 1.3-.18 1.914-.357.592-.17 1.226-.43 1.657-.861a3.745 3.745 0 001.055-3.217c.908-.461 1.942-1.216 3.04-2.3 1.279-1.262 2.764-2.825 3.775-4.249.501-.706.923-1.428 1.125-2.096.2-.659.235-1.469-.368-2.07-.606-.607-1.42-.55-2.069-.34-.66.213-1.376.646-2.076 1.155zm-3.95 8.48a3.76 3.76 0 00-1.19-1.192 9.758 9.758 0 011.161-1.607l1.658 1.658a9.853 9.853 0 01-1.63 1.142zM.742 16l.007-.75-.75.008A.75.75 0 00.743 16zM12.016 2.749c-1.224.89-2.605 2.189-3.822 3.384l1.718 1.718c1.21-1.205 2.51-2.597 3.387-3.833.47-.662.78-1.227.912-1.662.134-.444.032-.551.009-.575h-.001V1.78c-.014-.014-.112-.113-.548.027-.432.14-.995.462-1.655.942zM1.62 13.089a19.56 19.56 0 00-.104 1.395 19.55 19.55 0 001.396-.104 10.528 10.528 0 001.668-.309c.526-.151.856-.325 1.011-.48a2.25 2.25 0 00-3.182-3.182c-.155.155-.329.485-.48 1.01a10.515 10.515 0 00-.309 1.67z"/></svg>
